X: 47
T: Mon mignault / Gracieuse plaisante muniere
N: Derived from Bus3043-Mon_mignault__Gracieuse_plaisante_muniere.krn
C: Antoine Busnoys
%%abc-version 2.0
%%abcx-abcm2ps-target-version 5.9.1 (29 Sep 2008)
%%abc-creator hum2abc beta
%%abcx-conversion-date 2019/02/16 20:26:07
%%abc-edited-by Jesse Rodin
%%abc-edited-by Chris Gage 04-15-2015
%%abcx-initial-encoding-date 2015/05/12/
%%humdrum-veritas 3051638225
%%humdrum-veritas-data 3615069328
%%linebreak <none>
%%barnumbers 0
L: 1/4
M: 2/1
Q: 1/2=120
%%staves [1 2 3 4]
V: 1 clef=treble
V: 2 clef=treble-8
V: 3 clef=treble-8
V: 4 clef=bass
K: F
[V:1] G6A2 | 
[V:2] g8 | 
[V:3] z8 | 
[V:4] G,8 | 
[V:1] B4B4 | 
[V:2] e4d4 | 
[V:3] z8 | 
[V:4] G,4G,4 | 
[V:1] c3BG2A2- | 
[V:2] c4c4 | 
[V:3] z8 | 
[V:4] A,3G,E,2F,2- | 
[V:1] A2B4AG | 
[V:2] d4e4 | 
[V:3] z8 | 
[V:4] F,2G,4F,E, | 
[V:1] F2D3EF2 | 
[V:2] f6e2 | 
[V:3] d8 | 
[V:4] D,2F,3G,A,2 | 
[V:1] G4A4 | 
[V:2] d4c4 | 
[V:3] B4A4 | 
[V:4] B,2G,4^F,2 | 
[V:1] B4G4 | 
[V:2] B6c2 | 
[V:3] G4G4 | 
[V:4] G,6E,2 | 
[V:1] z4G4 | 
[V:2] d4e4- | 
[V:3] A4B4 | 
[V:4] F,4E,4 | 
[V:1] E2A3GG2- | 
[V:2] e2c2c4- | 
[V:3] c6B2 | 
[V:4] C,8 | 
[V:1] GFF4E2 | 
[V:2] c4B4 | 
[V:3] A4G4 | 
[V:4] z8 | 
[V:1] F6E2 | 
[V:2] c8 | 
[V:3] F6G2 | 
[V:4] F,,8- | 
[V:1] C4B,4 | 
[V:2] z8 | 
[V:3] A4B4- | 
[V:4] F,,4G,,4- | 
[V:1] G,4D4- | 
[V:2] z8 | 
[V:3] B2G2G4- | 
[V:4] G,,4B,,4 | 
[V:1] D2C2A,4 | 
[V:2] z8 | 
[V:3] G4^F4 | 
[V:4] A,,8 | 
[V:1] B,8 | 
[V:2] g4g2g2 | 
[V:3] G4z4 | 
[V:4] G,,8 | 
[V:1] z4B,4 | 
[V:2] f4d4 | 
[V:3] d4d2d2 | 
[V:4] z8 | 
[V:1] C4C4 | 
[V:2] e4e4 | 
[V:3] c4A4 | 
[V:4] z8 | 
[V:1] D6CB, | 
[V:2] d8 | 
[V:3] B4B4 | 
[V:4] G,4G,2G,2 | 
[V:1] C2D3EF2 | 
[V:2] z8 | 
[V:3] A8 | 
[V:4] F,4D,4 | 
[V:1] E2C4B,2 | 
[V:2] g4g2g2 | 
[V:3] z8 | 
[V:4] E,4E,4 | 
[V:1] D4B,4 | 
[V:2] f4d4 | 
[V:3] d4d2d2 | 
[V:4] D,8 | 
[V:1] A,8 | 
[V:2] e4e4 | 
[V:3] c4A4 | 
[V:4] z8 | 
[V:1] z8 | 
[V:2] d8- | 
[V:3] B4B4 | 
[V:4] G,4G,2G,2 | 
[V:1] A6GF | 
[V:2] d8 | 
[V:3] A3GA2B2- | 
[V:4] F,4D,4 | 
[V:1] GFED^C3=B, | 
[V:2] z8 | 
[V:3] BAGFG3F | 
[V:4] E,4E,4 | 
[V:1] D4F4 | 
[V:2] z8 | 
[V:3] A8 | 
[V:4] D,2F,3E,D,2 | 
[V:1] E4C4- | 
[V:2] g8 | 
[V:3] z8 | 
[V:4] C,4E,4- | 
[V:1] C4=B,4 | 
[V:2] e4d4 | 
[V:3] z8 | 
[V:4] E,2F,2G,4 | 
[V:1] C2G3FA2- | 
[V:2] c4c4 | 
[V:3] z8 | 
[V:4] C,2E,3D,F,2- | 
[V:1] AGB4AG | 
[V:2] d4e4 | 
[V:3] z8 | 
[V:4] F,E,G,4F,E, | 
[V:1] F3GB2A2- | 
[V:2] f6e2 | 
[V:3] d8 | 
[V:4] D,8 | 
[V:1] A2G4^F2 | 
[V:2] d4c4 | 
[V:3] B4A4 | 
[V:4] z8 | 
[V:1] G8 | 
[V:2] B6c2 | 
[V:3] G4G4 | 
[V:4] _E,8 | 
[V:1] z4G4 | 
[V:2] d4e4- | 
[V:3] A4B4 | 
[V:4] F,4G,4 | 
[V:1] E2G2A2G2- | 
[V:2] e2c2c4- | 
[V:3] c6B2 | 
[V:4] C,8 | 
[V:1] GCF4E2 | 
[V:2] c4B4 | 
[V:3] A4G4 | 
[V:4] z8 | 
[V:1] F8 | 
[V:2] c4f4 | 
[V:3] F6G2 | 
[V:4] F,6E,D, | 
[V:1] z8 | 
[V:2] e4d2d2- | 
[V:3] A4B4- | 
[V:4] C,4B,,4 | 
[V:1] z4E4 | 
[V:2] d2c2c3G | 
[V:3] B2G2G4- | 
[V:4] C,8 | 
[V:1] F6D2 | 
[V:2] c2B4A2 | 
[V:3] G4F4 | 
[V:4] D,8 | 
[V:1] E2G3FD2- | 
[V:2] c6F2 | 
[V:3] G4B4- | 
[V:4] C,6B,,2 | 
[V:1] DCB,2A,4 | 
[V:2] G4F4 | 
[V:3] Bcd3cA2 | 
[V:4] G,,4D,4 | 
[V:1] G,4A,2B,2 | 
[V:2] z2c4B2 | 
[V:3] B2AGF2G2- | 
[V:4] B,,2C,2A,,2G,,2 | 
[V:1] G,2G4^F2 | 
[V:2] _e2d3cA2 | 
[V:3] G2B2A4 | 
[V:4] G,4D,4 | 
[V:1] G8- | 
[V:2] B6G2 | 
[V:3] G8- | 
[V:4] G,,8- | 
[V:1] G8 |]  
[V:2] [B8d8] |]  
[V:3] G8 |]  
[V:4] G,,8 |]  



